brandFactory_export/2.Regular/Edificio_Casa_2Regular.svg

<?xml version="1.0" encoding="UTF-8"?>
<svg width="24px" height="24px" viewBox="0 0 24 24" version="1.1" xmlns="http://www.w3.org/2000/svg" xmlns:xlink="http://www.w3.org/1999/xlink">
    <title>2.Regular/Edificio_Casa_2Regular</title>
    <g id="Symbols" stroke="none" stroke-width="1" fill="none" fill-rule="evenodd">
        <g id="2.Regular/Edificio_Casa_2Regular" fill="#5CB615" fill-rule="nonzero">
            <path d="M9.18151261,22.1781513 L9.18151261,16.907563 C9.18151261,16.507563 9.50084034,16.1848739 9.8907563,16.1848739 L13.8840336,16.1848739 C14.2773109,16.1848739 14.5932773,16.507563 14.5932773,16.907563 L14.5932773,22.1747899 L19.087395,22.1747899 C19.205042,22.1747899 19.3226891,22.0403361 19.3226891,21.9663866 L19.3226891,1.65378151 C19.3159664,1.58319328 19.1747899,1.44537815 19.087395,1.44537815 L4.68403361,1.44537815 C4.59327731,1.44537815 4.45210084,1.57983193 4.4487395,1.65378151 L4.4487395,21.9663866 C4.4487395,22.0403361 4.5697479,22.1747899 4.68403361,22.1747899 L9.18151261,22.1781513 L9.18151261,22.1781513 Z M19.0907563,23.6235294 L4.68739496,23.6235294 C3.80336134,23.6235294 3.0302521,22.8504202 3.0302521,21.9697479 L3.0302521,1.65714286 C3.0302521,0.789915966 3.82016807,0.00336134454 4.68739496,0.00336134454 L19.0907563,0.00336134454 C19.9579832,0.00336134454 20.7478992,0.793277311 20.7478992,1.65714286 L20.7478992,21.9697479 C20.7445378,22.8504202 19.9714286,23.6235294 19.0907563,23.6235294 Z M10.6033613,22.1411765 L13.1747899,22.1411765 L13.1747899,17.6302521 L10.6033613,17.6302521 L10.6033613,22.1411765 L10.6033613,22.1411765 Z M8.07226891,6.13109244 L9.67563025,6.13109244 L9.67563025,4.50084034 L8.07226891,4.50084034 L8.07226891,6.13109244 Z M10.3882353,7.57647059 L7.36302521,7.57647059 C6.9697479,7.57647059 6.65378151,7.25378151 6.65378151,6.85378151 L6.65378151,3.77815126 C6.65378151,3.37815126 6.97310924,3.05546218 7.36302521,3.05546218 L10.3882353,3.05546218 C10.7815126,3.05546218 11.097479,3.37815126 11.097479,3.77815126 L11.097479,6.85378151 C11.097479,7.25378151 10.7781513,7.57647059 10.3882353,7.57647059 Z M14.0487395,6.13109244 L15.6521008,6.13109244 L15.6521008,4.50084034 L14.0487395,4.50084034 L14.0487395,6.13109244 Z M16.3647059,7.57647059 L13.3394958,7.57647059 C12.9462185,7.57647059 12.6302521,7.25378151 12.6302521,6.85378151 L12.6302521,3.77815126 C12.6302521,3.37815126 12.9495798,3.05546218 13.3394958,3.05546218 L16.3647059,3.05546218 C16.7579832,3.05546218 17.0739496,3.37815126 17.0739496,3.77815126 L17.0739496,6.85378151 C17.0739496,7.25378151 16.7546218,7.57647059 16.3647059,7.57647059 Z M8.07226891,12.1680672 L9.67563025,12.1680672 L9.67563025,10.5378151 L8.07226891,10.5378151 L8.07226891,12.1680672 L8.07226891,12.1680672 Z M10.3882353,13.6134454 L7.36302521,13.6134454 C6.9697479,13.6134454 6.65378151,13.2907563 6.65378151,12.8907563 L6.65378151,9.81512605 C6.65378151,9.41512605 6.97310924,9.09243697 7.36302521,9.09243697 L10.3882353,9.09243697 C10.7815126,9.09243697 11.097479,9.41512605 11.097479,9.81512605 L11.097479,12.8907563 C11.097479,13.2907563 10.7781513,13.6134454 10.3882353,13.6134454 Z M14.0487395,12.1680672 L15.6521008,12.1680672 L15.6521008,10.5378151 L14.0487395,10.5378151 L14.0487395,12.1680672 Z M16.3647059,13.6134454 L13.3394958,13.6134454 C12.9462185,13.6134454 12.6302521,13.2907563 12.6302521,12.8907563 L12.6302521,9.81512605 C12.6302521,9.41512605 12.9495798,9.09243697 13.3394958,9.09243697 L16.3647059,9.09243697 C16.7579832,9.09243697 17.0739496,9.41512605 17.0739496,9.81512605 L17.0739496,12.8907563 C17.0739496,13.2907563 16.7546218,13.6134454 16.3647059,13.6134454 Z" id="Edificio_Casa_2Regular"></path>
        </g>
    </g>
</svg>

<svg width="24" height="24" viewBox="0 0 24 24" xmlns="http://www.w3.org/2000/svg"><path d="M9.182 22.178v-5.27c0-.4.319-.723.709-.723h3.993c.393 0 .71.323.71.723v5.267h4.493c.118 0 .236-.135.236-.209V1.654c-.007-.07-.148-.209-.236-.209H4.684c-.09 0-.232.135-.235.209v20.312c0 .074.12.209.235.209l4.498.003zm9.909 1.446H4.687c-.884 0-1.657-.774-1.657-1.654V1.657C3.03.79 3.82.003 4.687.003h14.404c.867 0 1.657.79 1.657 1.654V21.97c-.003.88-.777 1.654-1.657 1.654zm-8.488-1.483h2.572v-4.51h-2.572v4.51zm-2.53-16.01h1.603v-1.63H8.072v1.63zm2.315 1.445H7.363a.715.715 0 01-.71-.722V3.778c0-.4.32-.723.71-.723h3.025c.394 0 .71.323.71.723v3.076c0 .4-.32.722-.71.722zm3.66-1.445h1.604v-1.63H14.05v1.63zm2.317 1.445h-3.026a.715.715 0 01-.709-.722V3.778c0-.4.32-.723.71-.723h3.025c.393 0 .709.323.709.723v3.076c0 .4-.32.722-.71.722zm-8.293 4.592h1.604v-1.63H8.072v1.63zm2.316 1.445H7.363a.715.715 0 01-.71-.722V9.815c0-.4.32-.723.71-.723h3.025c.394 0 .71.323.71.723v3.076c0 .4-.32.722-.71.722zm3.66-1.445h1.604v-1.63H14.05v1.63zm2.317 1.445h-3.026a.715.715 0 01-.709-.722V9.815c0-.4.32-.723.71-.723h3.025c.393 0 .709.323.709.723v3.076c0 .4-.32.722-.71.722z" fill="#5CB615" fill-rule="nonzero"/></svg>
